frontend/src/assets/icons/map-menu/04-konfiguration.svg

<?xml version="1.0" encoding="UTF-8"?>
<svg overflow="hidden" viewBox="0 0 34 34" xml:space="preserve" xmlns="http://www.w3.org/2000/svg"><defs><clipPath id="clip0"><rect x="210" y="226" width="34" height="34"/></clipPath><clipPath id="clip1"><rect x="211" y="227" width="33" height="33"/></clipPath><clipPath id="clip2"><rect x="211" y="227" width="33" height="33"/></clipPath><clipPath id="clip3"><rect x="211" y="227" width="33" height="33"/></clipPath></defs>
    <g transform="translate(-210 -226)" clip-path="url(#clip0)"><g clip-path="url(#clip1)"><g clip-path="url(#clip2)"><g clip-path="url(#clip3)"><path d="m231.38 239.82c-1.443 0-2.578-1.169-2.578-2.578 0-1.41 1.169-2.578 2.578-2.578 1.444 0 2.578 1.168 2.578 2.578 0 1.409-1.168 2.578-2.578 2.578zm5.81-4.194c-0.138-0.481-0.31-0.928-0.55-1.34l0.55-1.616-1.238-1.238-1.615 0.55c-0.413-0.24-0.86-0.412-1.341-0.55l-0.756-1.512h-1.719l-0.756 1.512c-0.481 0.138-0.928 0.31-1.341 0.55l-1.616-0.55-1.237 1.238 0.55 1.616c-0.241 0.412-0.413 0.859-0.55 1.34l-1.513 0.756v1.719l1.513 0.756c0.137 0.482 0.309 0.929 0.55 1.341l-0.55 1.616 1.203 1.203 1.616-0.55c0.412 0.24 0.859 0.412 1.34 0.55l0.757 1.512h1.718l0.757-1.512c0.481-0.138 0.928-0.31 1.34-0.55l1.616 0.55 1.237-1.203-0.55-1.616c0.241-0.412 0.447-0.894 0.585-1.341l1.512-0.756v-1.719l-1.512-0.756z"/><path d="m223.62 252.33c-1.444 0-2.578-1.168-2.578-2.578 0-1.444 1.168-2.578 2.578-2.578 1.443 0 2.578 1.169 2.578 2.578 0 1.41-1.135 2.578-2.578 2.578zm5.259-5.534 0.55-1.616-1.237-1.237-1.616 0.55c-0.413-0.241-0.894-0.413-1.341-0.55l-0.756-1.513h-1.719l-0.756 1.513c-0.481 0.137-0.928 0.309-1.341 0.55l-1.615-0.55-1.203 1.203 0.515 1.616c-0.24 0.412-0.412 0.893-0.55 1.34l-1.512 0.757v1.718l1.512 0.756c0.138 0.482 0.31 0.929 0.55 1.341l-0.515 1.616 1.203 1.203 1.615-0.516c0.413 0.241 0.86 0.413 1.341 0.55l0.756 1.513h1.719l0.756-1.513c0.481-0.137 0.928-0.309 1.341-0.55l1.616 0.55 1.203-1.237-0.516-1.582c0.241-0.412 0.413-0.859 0.55-1.34l1.513-0.756v-1.719l-1.513-0.756c-0.137-0.482-0.309-0.929-0.55-1.341z"/></g></g></g></g></svg>

<svg viewBox="0 0 34 34" xmlns="http://www.w3.org/2000/svg"
     xml:space="preserve" overflow="hidden"><defs><clipPath id="clip0"><rect x="210" y="226" width="34" height="34"/></clipPath><clipPath
        id="clip1"><rect x="211" y="227" width="33" height="33"/></clipPath><clipPath id="clip2"><rect x="211" y="227" width="33" height="33"/></clipPath><clipPath
        id="clip3"><rect x="211" y="227" width="33" height="33"/></clipPath></defs>
    <g clip-path="url(#clip0)" transform="translate(-210 -226)"><g clip-path="url(#clip1)"><g clip-path="url(#clip2)"><g clip-path="url(#clip3)"><path d="M231.384 239.822C229.941 239.822 228.806 238.653 228.806 237.244 228.806 235.834 229.975 234.666 231.384 234.666 232.828 234.666 233.962 235.834 233.962 237.244 233.962 238.653 232.794 239.822 231.384 239.822ZM237.194 235.628C237.056 235.147 236.884 234.7 236.644 234.288L237.194 232.672 235.956 231.434 234.341 231.984C233.928 231.744 233.481 231.572 233 231.434L232.244 229.922 230.525 229.922 229.769 231.434C229.288 231.572 228.841 231.744 228.428 231.984L226.812 231.434 225.575 232.672 226.125 234.288C225.884 234.7 225.712 235.147 225.575 235.628L224.062 236.384 224.062 238.103 225.575 238.859C225.712 239.341 225.884 239.788 226.125 240.2L225.575 241.816 226.778 243.019 228.394 242.469C228.806 242.709 229.253 242.881 229.734 243.019L230.491 244.531 232.209 244.531 232.966 243.019C233.447 242.881 233.894 242.709 234.306 242.469L235.922 243.019 237.159 241.816 236.609 240.2C236.85 239.788 237.056 239.306 237.194 238.859L238.706 238.103 238.706 236.384 237.194 235.628Z" fill="#000000" fill-rule="nonzero" fill-opacity="1"/><path
            d="M223.616 252.334C222.172 252.334 221.038 251.166 221.038 249.756 221.038 248.312 222.206 247.178 223.616 247.178 225.059 247.178 226.194 248.347 226.194 249.756 226.194 251.166 225.059 252.334 223.616 252.334L223.616 252.334ZM228.875 246.8 229.425 245.184 228.188 243.947 226.572 244.497C226.159 244.256 225.678 244.084 225.231 243.947L224.475 242.434 222.756 242.434 222 243.947C221.519 244.084 221.072 244.256 220.659 244.497L219.044 243.947 217.841 245.15 218.356 246.766C218.116 247.178 217.944 247.659 217.806 248.106L216.294 248.863 216.294 250.581 217.806 251.337C217.944 251.819 218.116 252.266 218.356 252.678L217.841 254.294 219.044 255.497 220.659 254.981C221.072 255.222 221.519 255.394 222 255.531L222.756 257.044 224.475 257.044 225.231 255.531C225.712 255.394 226.159 255.222 226.572 254.981L228.188 255.531 229.391 254.294 228.875 252.712C229.116 252.3 229.288 251.853 229.425 251.372L230.938 250.616 230.938 248.897 229.425 248.141C229.288 247.659 229.116 247.212 228.875 246.8Z"
            fill="#000000" fill-rule="nonzero" fill-opacity="1"/></g></g></g></g></svg>
